X:1
T:There is a green hill far away
T:There is a green hill far away
T:Le Calvaire
T:Ch. Gounod
T:Mrs. C.F. Alexander
C:Ch. Gounod
Z:Mrs. C.F. Alexander
%%score 1 { ( 2 4 ) | ( 3 5 ) }
L:1/8
Q:1/4=88
M:4/4
K:F
V:1 treble-8 nm="Voice" snm="Vc."
V:2 treble nm="Piano" snm="Pno."
V:4 treble 
V:3 bass 
V:5 bass 
V:1
"^Andante moderato" z8 | z8 | z8 | z8 | z8 | z8 | z8 | z8 | z8 |!mp! F2 FF F2 F2 | F>D D3 z z D | %11
w: |||||||||There is a green hill|far a- way, With-|
 D4 z ^CCC | D4 z4 | A2 AA A2 A2 | A>F F3 z F2 | F3 F E3 E | F4 z4 | A2 AA c3 A | G^F F2 z2 F2 | %19
w: out a ci- ty|wall,|Where the dear Lord was|cru- ci- fied, Who|died to save us|all.|We may not know, we|can- not tell, What|
 G3 G _E3 E | D4 z4 | B2 BB d3 B | A^G G2 z2 G2 | A4 z EEE | E4 z2 A2 | B3 B B3 B | BA A2 z2 A2 | %27
w: pains He had to|bear,|But we be- lieve it|was for us He|hung and suf- fer'd|there. He|died that we might|be for- giv'n, He|
 G3 G G3 G | ^F4 z4 | F2 FF F3 F | F_E B4- B z | =B2 DE F3 D | A4 z4 ||[K:D] A2 AA B3 F | %34
w: died to make us|good,|That we might go at|last to heav'n, _|Sav'd by His pre- cious|blood.|There was no oth- er|
 AG G3 z G2 | c3 B A3 G | F2 z2 ^G4 | A2 A2 A3 A | A2 ^A2 B2 ^B2 | c3 c d3 ^G | %40
w: good e- nough To|pay the price of|sin, He|on- ly could un-|lock the gate of|Heav'n, and let us|
 A4 z2"^molto espress." A2 | A2 C2 z2 B2- | BAGF (F2 E) z | F2 FF c3 B | A4 z2 A2 | d4- dAGF | %46
w: in! O|dear- ly, dear-|* ly has He lov'd! _|And we must love Him,|too, And|trust _ in His re-|
 FE E2 z2 d2 | d4- d=cAF | AG G2 z2 G2 | F3 F E3 E | A4 z2 B2 | D3 D F2 E2 | D4 z4 | G3 G B3 A | %54
w: deem- ing blood, and|trust _ in His re-|deem- ing blood, And|try His works to|do, and|try His works to|do.|We must love Him,|
 A4 z4 | D3 D G3 F | F4 z2 F2 | A4 D4 | F4 E4 | D6 z2 | z8 | z8 | z8 |] %63
w: too!|We must love Him,|too, And|try His|works to|do!||||
V:2
!p! z2!<(! ([A,A]>[B,B])!<)! [B,B]4- | [B,B] z!>(! ([B,B]>[A,A])!>)! [A,A]4- | %2
 [A,A] z!<(! ([A,A]>[B,B])!<)! [B,B]4- | [B,B] z!>(! ([B,B]>[A,A])!>)! [A,A]4- | %4
 [A,A] z ([Dd]>[^C^c]) ([Cc]2 [=C=c]) z | z2 ([Cc]>[=B,=B]) ([B,B]2 [_B,_B]) z | %6
 z2 ([B,B]>[A,A]) [A,A]2 [=B,^G]2 | =G2"_dim." F4 E2 |!p! D z D z [DF] z D z | z2 D z [DF] z D z | %10
 z2 D z [B,DF] z D z | z2 D2 [A,^C]2 [A,C]2 | z2 D z [DF] z D z | %13
 z2!<(! [A,CF] z [CFA] z [A,CF]!<)! z |"_cresc." z2 [A,DF] z [DFA] z [A,DF] z | %15
"_dim." z2 [DFd]2 [CEc]2 [CEB]2 | z2 [CFA] z [FAc] z [Acf] z |"_cresc." z8 | z8 |"_dim." z8 | %20
 z2 [G,B,] z!<(! [G,B,D] z [B,DG]!<)! z |"_cresc." z8 | z2 D2 ^C2 =B,2 |"_dim." z2 E2 z2 D2 | %24
 z2 [A,^C] z [A,CE] z [CEA] z |!<(! z2 [^CEB]2 [CEB]2 [CEB]2 | z2 [DA]2 [Fd]2 [DA]2!<)! | %27
!>(! z2 [B,^CG]2 [B,CG]2 [B,CG]2!>)! | z2 [A,D^F]2 [DFd]2 [A,DF]2 | z2 F2 [A,_E]2 [B,D]2 | %30
 z2 [G,B,_E]2 [B,EG]2 z2 | z2 D4 D2 |!p! [A,^C] z [A,CE]2 [A,C^F]2 [A,CG]2 || %33
[K:D] (3[A,DF][A,DF][A,DF] (3[A,DF][A,DF][A,DF] (3[A,DF][A,DF][A,DF] (3[A,DF][A,DF][A,DF] | %34
 (3[B,E][B,E][B,E] (3[B,EG][B,EG][B,EG] (3[EGB][EGB][EGB] (3[EGe][EGe][EGe] | %35
 (3[EGc][EGc][EGc] (3[EGB][EGB][EGB] (3[CEA][CEA][CEA] (3[CEG][CEG][CEG] | %36
 (3[DF][DF][DF] (3[DF][DF][DF] (3[B,=F^G][B,FG][B,FG] (3[B,FG][B,FG][B,FG] | %37
 (3[A,EA][A,EA][A,EA] (3[A,EA][A,EA][A,EA]"_cresc." (3[^EA][EA][EA] (3[EA][EA][EA] | %38
 (3[FA][FA][FA] (3[F^A][FA][FA] (3[FB][FB][FB] (3[^G^B^g][GBg][FBf] | %39
!f! (3[Ece][Ece][Ece] (3[A,CE][A,CE][A,CE]"_dim." (3[A,DF][A,DF][A,DF] (3[^G,D^G][G,DG][G,DG] | %40
!p! (3[A,CA][A,CA][A,CA] (3[A,CE][A,CE][A,CE] (3[A,C^E][A,CE][A,CE] (3[A,CF][A,CF][A,CF] | %41
 (3z [CEG][CEG]!<(! (3[CEG][CEG][CEG] (3[=C^DF][CDF][CDF] (3[CDF][CDF][CDF]!<)! | %42
 (3[CEG][CEG][CEG] (3[A,C][A,C][A,C] (3[A,B,D][A,B,D][A,B,D] (3[A,CE][A,CE][A,CE] | %43
 (3z!<(! [A,DF][A,DF] (3[A,DF][A,DF][A,DF] (3[A,D^G][A,DG][A,DG] (3[A,DG][A,DG][A,DG]!<)! | %44
 (3[A,DA][A,DA][A,DA] (3[A,D][A,D][A,D] (3[A,F][A,F][A,F] (3[A,E][A,E][A,E] | %45
!p! (3[A,D][A,D][A,D] (3[A,A][A,A][A,A] (3[A,F][A,F][A,F] (3[A,D][A,D][A,D] | %46
 (3[B,D][B,D][B,D] (3[B,E][B,E][B,E] (3[B,B][B,B][B,B]"_cresc." (3[B,A][B,A]"_molto"[B,G] | %47
 (3[=CF][CF][CF] (3[C=c][Cc][Cc] (3[CA][CA][CA] (3[CF][CF][CF] | %48
 (3[DF][DF][DF] (3[DG][DG][DG] (3[Dd][Dd][Dd]!>(! (3DD[DE]!>)! |"_dim." [DF]4 [A,CE]4 | %50
!p! [A,DA]2!<(! D2 C2!<)! [^E,B,]2 | A,2 [A,D]2 [DF]2 [G,A,CE]2 | %52
 [F,A,D]F,/4A,/4D/4F/4 z A,/4D/4F/4A/4!<(! z D/4F/4A/4d/4 z F/4A/4d/4f/4!<)! | %53
 [B,DB]4!>(! [CEGc]4!>)! | %54
!p! [DFd]F,/4A,/4D/4F/4 z A,/4D/4F/4A/4 z!<(! D/4F/4A/4d/4 z F/4A/4d/4f/4!<)! | [B,D]4 [A,CG]4 | %56
 [A,DF]2 [DFA]2 [DFd]2 [DF]2 | [A,DA]4 [B,D]4 | [A,DF]4 [G,A,CE]4 | %59
!pp! z F,/4A,/4D/4F/4 z A,/4D/4F/4A/4 z D/4F/4A/4d/4 z F/4A/4d/4f/4 | %60
 A z [DFAd] z [FAdf] z [Acea] z | [dfad']8- | [dfad'] z z2 z4 |] %63
V:3
 [D,,,D,,] z [D,F,]3 z ([D,,,D,,]2 | [F,,,F,,]) z [D,F,]3 z ([F,,,F,,]2 | %2
 [E,,,E,,]) z [D,G,]3 z ([E,,,E,,]2 | [G,,,G,,]) z [^C,E,]3 z ([G,,,G,,]2 | %4
 [F,,,F,,]) z [D,A,]3 z ([^F,,,^F,,]2 | [G,,,G,,]) z [D,=F,]3 z ([^G,,,^G,,]2 | %6
 [A,,,A,,]) z [A,,D,F,]4 [A,,F,]2 | E,2 D,2 =B,,2 ^C,2 | %8
 [D,,,D,,F,] z [A,,D,F,A,] z [D,F,A,] z [A,,D,F,A,] z | %9
 [F,,,F,,] z [A,,D,F,A,] z [D,F,A,] z [A,,D,F,A,] z | %10
 [G,,,G,,] z [B,,D,F,B,] z [D,F,] z [B,,D,F,B,] z | z2 [E,A,]2 F,2 G,2 | %12
 z2 [F,A,] z A, z [F,A,] z | [A,,,A,,] z [C,F,] z [F,A,] z [C,F,] z | %14
 [=B,,,=B,,] z [D,F,] z [F,A,] z [D,F,] z | C, z G,2 A,2 [G,B,]2 | %16
!p! [F,,,F,,] z [C,F,A,] z [F,A,C] z [A,CF] z | z2 [C,G,A,]2 [C,G,A,]2 [C,G,A,]2 | %18
 z2 [D,^F,C]2 [_E,F,B,]2 [E,F,A,]2 | z2 [D,G,D]2 z2 [_E,G,A,]2 | %20
!p! G,,, z [D,,G,,B,,D,] z [G,,B,,D,] z [B,,D,G,] z | z2 [D,B,]2 [D,B,]2 [D,B,]2 | %22
 z2 [E,^G,]2 [F,G,]2 [F,G,]2 | z2 [E,A,]2 z2 [E,^G,]2 | %24
!p! A,,, z [E,,A,,^C,E,] z [A,,C,E,] z [C,E,A,] z | A,, z G,2 G,2 G,2 | A,, z F,2 A,2 F,2 | %27
 A,, z [E,G,]2 [E,G,]2 [E,G,]2 |!p! A,, z [D,^F,]2 [F,A,]2 [D,F,]2 | B,, z B,,2 C,2 D,2 | %30
 [G,,,G,,] z [B,,_E,]2 [E,G,]2 [G,B,]2 | z2 [F,=B,]4 [F,B,]2 | %32
 [A,,,A,,E,] z [A,,G,]2 [A,,^F,]2 [A,,E,]2 || %33
[K:D] (3[D,,,D,,][D,F,][D,F,] (3[D,F,][D,F,][D,F,] (3[D,F,][D,F,][D,F,] (3[D,F,][D,F,][D,F,] | %34
 (3[D,E,G,][D,E,G,][D,E,G,] (3[D,E,G,][D,E,G,][D,E,G,] (3[D,E,G,B,][D,E,G,B,][D,E,G,B,] (3[D,E,G,B,][D,E,G,B,][D,E,G,B,] | %35
 (3[D,E,G,A,][D,E,G,A,][D,E,G,A,] (3[D,E,G,A,][D,E,G,A,][D,E,G,A,] (3[D,E,G,A,][D,E,G,A,][D,E,G,A,] (3[D,E,G,A,][D,E,G,A,][D,E,G,A,] | %36
 (3[D,F,A,][D,F,A,][D,F,A,] (3[D,F,A,][D,F,A,][D,F,A,] (3[D,=F,][D,F,][D,F,] (3[D,F,][D,F,][D,F,] | %37
 (3[C,E,][C,E,][C,E,] (3[C,E,][C,E,][C,E,] (3[C,=G,A,][C,G,A,][C,G,A,] (3[C,G,A,][C,G,A,][C,G,A,] | %38
 (3[D,F,A,][D,F,A,][D,F,A,] (3[D,F,^A,][D,F,A,][D,F,A,] (3[^D,F,B,][D,F,B,][D,F,B,] (3[D,^G,^B,][D,G,B,][D,G,B,] | %39
 (3[E,A,C][E,A,C][E,A,C] (3[E,,C,E,][E,,C,E,][E,,C,E,] (3[E,,B,,F,][E,,B,,F,][E,,B,,F,] (3[E,,B,,E,][E,,B,,E,][E,,B,,E,] | %40
 (3[A,,E,][A,,E,][A,,E,] (3[A,,E,][A,,E,][A,,E,] (3[A,,^E,][A,,E,][A,,E,] (3[A,,F,][A,,F,][A,,F,] | %41
 (3[A,,,A,,][A,,G,][A,,G,] (3[A,,G,][A,,G,][A,,G,] (3[A,,F,][A,,F,][A,,F,] (3[A,,F,][A,,F,][A,,F,] | %42
 (3[A,,G,][A,,G,][A,,G,] (3[A,,G,][A,,G,][A,,G,] (3[A,,G,][A,,G,][A,,G,] (3[A,,G,][A,,G,][A,,G,] | %43
 (3[A,,,A,,][A,,F,][A,,F,] (3[A,,F,][A,,F,][A,,F,] (3[A,,^E,][A,,E,][A,,E,] (3[A,,E,][A,,E,][A,,E,] | %44
 (3[A,,F,][A,,F,][A,,F,] (3[A,,F,][A,,F,][A,,F,] (3[G,,C,][G,,C,][G,,C,] (3[G,,C,][G,,C,][G,,C,] | %45
 (3[F,,,F,,][F,,D,][F,,D,] (3[F,,D,][F,,D,][F,,D,] (3[F,,D,][F,,D,][F,,D,] (3[F,,D,][F,,D,][F,,D,] | %46
 (3[G,,,G,,][G,,D,][G,,D,] (3[G,,D,E,][G,,D,E,][G,,D,E,] (3[G,,D,E,][G,,D,E,][G,,D,E,] (3[G,,D,E,][G,,D,E,][G,,D,E,] | %47
 (3[A,,,A,,][A,,D,F,][A,,D,F,] (3[A,,D,F,][A,,D,F,][A,,D,F,] (3[A,,D,F,][A,,D,F,][A,,D,F,] (3[A,,D,F,][A,,D,F,][A,,D,F,] | %48
 (3[B,,,B,,][B,,D,F,][B,,D,F,] (3[B,,D,G,][B,,D,G,][B,,D,G,] (3[B,,D,G,][B,,D,G,][B,,D,G,] (3[B,,D,G,][B,,D,G,][B,,D,G,] | %49
 [A,,A,]4 [G,,A,,G,]4 | [F,,A,,F,]2 z2 z2 [^G,,D,]2 | [D,F,]2 F,2 A,2 A,,2 | %52
 [D,,,D,,]/4F,,/4A,,/4D,/4 z F,,/4A,,/4D,/4F,/4 z A,,/4D,/4F,/4A,/4 z D,/4F,/4A,/4D/4 z | %53
 G,2 F,2 E,4 | %54
 [D,,,D,,]/4F,,/4A,,/4D,/4 z F,,/4A,,/4D,/4F,/4 z A,,/4D,/4F,/4A,/4 z D,/4F,/4A,/4D/4 z | %55
 G,2 F,2 E,4 | [D,,D,]2 [D,F,A,]2 [C,F,A,]2 [B,,F,B,]2 | [F,,D,]4 [F,,D,]4 | [A,,F,]4 [A,,,A,,]4 | %59
 [D,,,D,,]/4F,,/4A,,/4D,/4 z F,,/4A,,/4D,/4F,/4 z A,,/4D,/4F,/4A,/4 z D,/4F,/4A,/4D/4 z | %60
 F, z [A,,D,F,A,] z D, z [E,,G,,A,,C,E,] z | %61
 D,,,/4D,,/4D,,,/4D,,/4D,,,/4D,,/4D,,,/4D,,/4 D,,,/4D,,/4D,,,/4D,,/4D,,,/4D,,/4D,,,/4D,,/4 D,,,/4D,,/4D,,,/4D,,/4D,,,/4D,,/4D,,,/4D,,/4 D,,,/4D,,/4D,,,/4D,,/4D,,,/4D,,/4D,,,/4D,,/4 | %62
 [D,,,D,,] z z2 z4 |] %63
V:4
 x8 | x8 | x8 | x8 | x8 | x8 | x8 | ^C2 D2 ^G,2 =G,2 | x8 | x8 | x8 | x8 | x8 | x8 | x8 | x8 | x8 | %17
 x8 | x8 | x8 | x8 | x8 | x8 | x8 | x8 | x8 | x8 | x8 | x8 | z2 F,4 F,2 | x8 | x8 | x8 ||[K:D] x8 | %34
 x8 | x8 | x8 | x8 | x8 | x8 | x8 | x8 | x8 | x8 | x8 | x8 | x8 | x8 | x8 | x8 | x8 | x8 | x8 | %53
 x8 | x8 | x8 | x8 | x8 | x8 | x8 | x8 | x8 | x8 |] %63
V:5
 x8 | x8 | x8 | x8 | x8 | x8 | x8 | A,,2 A,,4 A,,2 | x8 | x8 | x8 | [A,,,A,,]8 | %12
 [D,,A,,]4- [D,,A,,] z z2 | x8 | x8 | x8 | x8 | _E,,8 | D,,4 C,,4 | B,,,4 C,,4 | x8 | F,,8 | %22
 E,,4 D,,4 | ^C,,4 =B,,,2 _B,,,2 | x8 | A,,, z A,,4 A,,2 | A,,, z A,,4 A,,2 | A,,, z A,,4 A,,2 | %28
 B,,, z A,,4 A,,2 | B,,, z B,,4 B,,2 | x8 | [^G,,,^G,,]8 | x8 ||[K:D] x8 | x8 | x8 | x8 | x8 | x8 | %39
 x8 | x8 | x8 | x8 | x8 | x8 | x8 | x8 | x8 | x8 | x8 | x8 | A,,6 A,,,2 | x8 | D,4 D,4 | x8 | %55
 D,4 D,4 | x8 | x8 | x8 | x8 | x8 | x8 | x8 |] %63

